;FLAVOR:Marlin
;TIME:7271
;Filament used: 6.22516m
;Layer height: 0.2
;MINX:92.2
;MINY:112.2
;MINZ:0.2
;MAXX:207.8
;MAXY:187.8
;MAXZ:5
;Generated with Cura_SteamEngine 4.8.0
M140 S70
M105
M190 S70
M104 S230
M105
M109 S230
M82 ;absolute extrusion mode
M201 X500.00 Y500.00 Z100.00 E5000.00 ;Setup machine max acceleration
M203 X500.00 Y500.00 Z10.00 E50.00 ;Setup machine max feedrate
M204 P500.00 R1000.00 T500.00 ;Setup Print/Retract/Travel acceleration
M205 X8.00 Y8.00 Z0.40 E5.00 ;Setup Jerk
M220 S100 ;Reset Feedrate
M221 S100 ;Reset Flowrate

G28 ;Home

G92 E0 ;Reset Extruder
G1 Z2.0 F3000 ;Move Z Axis up
G1 X10.1 Y20 Z0.28 F5000.0 ;Move to start position
G1 X10.1 Y200.0 Z0.28 F1500.0 E15 ;Draw the first line
G1 X10.4 Y200.0 Z0.28 F5000.0 ;Move to side a little
G1 X10.4 Y20 Z0.28 F1500.0 E30 ;Draw the second line
G92 E0 ;Reset Extruder
G1 Z2.0 F3000 ;Move Z Axis up

G92 E0
G92 E0
G1 F2700 E-5
;LAYER_COUNT:25
;LAYER:0
M107
G0 F6000 X95.188 Y113.955 Z0.2
;TYPE:SKIRT
G1 F2700 E0
G1 F1200 X95.824 Y113.488 E0.02624
G1 X96.504 Y113.087 E0.0525
G1 X97.222 Y112.757 E0.07878
G1 X97.969 Y112.502 E0.10504
G1 X98.738 Y112.323 E0.1313
G1 X99.522 Y112.223 E0.15758
G1 X100.117 Y112.2 E0.17739
G1 X199.883 Y112.2 E3.49562
G1 X200.672 Y112.24 E3.52189
G1 X201.452 Y112.359 E3.54814
G1 X202.217 Y112.557 E3.57442
G1 X202.957 Y112.831 E3.60067
G1 X203.666 Y113.179 E3.62693
G1 X204.337 Y113.597 E3.65323
G1 X204.961 Y114.08 E3.67947
G1 X205.398 Y114.485 E3.69929
G1 X205.515 Y114.602 E3.70479
G1 X206.045 Y115.188 E3.73107
G1 X206.512 Y115.824 E3.75732
G1 X206.913 Y116.504 E3.78357
G1 X207.243 Y117.222 E3.80986
G1 X207.498 Y117.969 E3.83611
G1 X207.677 Y118.738 E3.86237
G1 X207.777 Y119.522 E3.88866
G1 X207.8 Y120.117 E3.90846
G1 X207.8 Y179.883 E5.89629
G1 X207.76 Y180.672 E5.92256
G1 X207.641 Y181.452 E5.94881
G1 X207.443 Y182.217 E5.97509
G1 X207.169 Y182.957 E6.00133
G1 X206.821 Y183.666 E6.0276
G1 X206.403 Y184.337 E6.0539
G1 X205.92 Y184.961 E6.08014
G1 X205.515 Y185.398 E6.09996
G1 X205.398 Y185.515 E6.10546
G1 X204.812 Y186.045 E6.13174
G1 X204.176 Y186.512 E6.15799
G1 X203.496 Y186.913 E6.18424
G1 X202.778 Y187.243 E6.21052
G1 X202.031 Y187.498 E6.23678
G1 X201.262 Y187.677 E6.26304
G1 X200.478 Y187.777 E6.28932
G1 X199.883 Y187.8 E6.30913
G1 X100.117 Y187.8 E9.62736
G1 X99.328 Y187.76 E9.65364
G1 X98.548 Y187.641 E9.67988
G1 X97.783 Y187.443 E9.70616
G1 X97.043 Y187.169 E9.73241
G1 X96.334 Y186.821 E9.75868
G1 X95.663 Y186.403 E9.78497
G1 X95.039 Y185.92 E9.81122
G1 X94.602 Y185.515 E9.83103
G1 X94.485 Y185.398 E9.83654
G1 X93.955 Y184.812 E9.86281
G1 X93.488 Y184.176 E9.88906
G1 X93.087 Y183.496 E9.91532
G1 X92.757 Y182.778 E9.9416
G1 X92.502 Y182.031 E9.96785
G1 X92.323 Y181.262 E9.99411
G1 X92.223 Y180.478 E10.0204
G1 X92.2 Y179.883 E10.0402
G1 X92.2 Y120.117 E12.02803
G1 X92.24 Y119.328 E12.0543
G1 X92.359 Y118.548 E12.08055
G1 X92.557 Y117.783 E12.10683
G1 X92.831 Y117.043 E12.13308
G1 X93.179 Y116.334 E12.15934
G1 X93.597 Y115.663 E12.18564
G1 X94.08 Y115.039 E12.21188
G1 X94.485 Y114.602 E12.2317
G1 X94.602 Y114.485 E12.2372
G1 X95.188 Y113.955 E12.26348
G0 F6000 X95.456 Y114.253
G1 F1200 X96.078 Y113.8 E12.28908
G1 X96.743 Y113.414 E12.31465
G1 X97.445 Y113.099 E12.34024
G1 X98.176 Y112.859 E12.36583
G1 X98.927 Y112.696 E12.39139
G1 X99.692 Y112.612 E12.41699
G1 X100.117 Y112.6 E12.43113
G1 X199.883 Y112.6 E15.74936
G1 X200.651 Y112.64 E15.77494
G1 X201.411 Y112.759 E15.80052
G1 X202.154 Y112.957 E15.8261
G1 X202.873 Y113.231 E15.85169
G1 X203.559 Y113.578 E15.87726
G1 X204.206 Y113.994 E15.90284
G1 X204.806 Y114.475 E15.92842
G1 X205.116 Y114.767 E15.94258
G1 X205.233 Y114.884 E15.94809
G1 X205.747 Y115.456 E15.97367
G1 X206.2 Y116.078 E15.99926
G1 X206.586 Y116.743 E16.02483
G1 X206.901 Y117.445 E16.05042
G1 X207.141 Y118.176 E16.07601
G1 X207.304 Y118.927 E16.10157
G1 X207.388 Y119.692 E16.12717
G1 X207.4 Y120.117 E16.14131
G1 X207.4 Y179.883 E18.12914
G1 X207.36 Y180.651 E18.15472
G1 X207.241 Y181.411 E18.1803
G1 X207.043 Y182.154 E18.20588
G1 X206.769 Y182.873 E18.23147
G1 X206.422 Y183.559 E18.25704
G1 X206.006 Y184.206 E18.28262
G1 X205.525 Y184.806 E18.3082
G1 X205.233 Y185.116 E18.32236
G1 X205.116 Y185.233 E18.32787
G1 X204.544 Y185.747 E18.35344
G1 X203.922 Y186.2 E18.37904
G1 X203.257 Y186.586 E18.40461
G1 X202.555 Y186.901 E18.4302
G1 X201.824 Y187.141 E18.45579
G1 X201.073 Y187.304 E18.48135
G1 X200.308 Y187.388 E18.50695
G1 X199.883 Y187.4 E18.52109
G1 X100.117 Y187.4 E21.83932
G1 X99.349 Y187.36 E21.8649
G1 X98.589 Y187.241 E21.89048
G1 X97.846 Y187.043 E21.91606
G1 X97.127 Y186.769 E21.94165
G1 X96.441 Y186.422 E21.96722
G1 X95.794 Y186.006 E21.9928
G1 X95.194 Y185.525 E22.01838
G1 X94.884 Y185.233 E22.03254
G1 X94.767 Y185.116 E22.03805
G1 X94.253 Y184.544 E22.06363
G1 X93.8 Y183.922 E22.08922
G1 X93.414 Y183.257 E22.11479
G1 X93.099 Y182.555 E22.14038
G1 X92.859 Y181.824 E22.16597
G1 X92.696 Y181.073 E22.19153
G1 X92.612 Y180.308 E22.21713
G1 X92.6 Y179.883 E22.23127
G1 X92.6 Y120.117 E24.2191
G1 X92.64 Y119.349 E24.24468
G1 X92.759 Y118.589 E24.27026
G1 X92.957 Y117.846 E24.29584
G1 X93.231 Y117.127 E24.32143
G1 X93.578 Y116.441 E24.347
G1 X93.994 Y115.794 E24.37258
G1 X94.475 Y115.194 E24.39816
G1 X94.767 Y114.884 E24.41232
G1 X94.884 Y114.767 E24.41783
G1 X95.456 Y114.253 E24.4434
G0 F6000 X95.724 Y114.55
G1 F1200 X96.33 Y114.113 E24.46825
G1 X96.98 Y113.742 E24.49315
G1 X97.666 Y113.443 E24.51804
G1 X98.38 Y113.219 E24.54292
G1 X99.113 Y113.072 E24.56779
G1 X100.117 Y113 E24.60127
G1 X199.883 Y113 E27.9195
G1 X200.63 Y113.04 E27.94438
G1 X201.368 Y113.159 E27.96924
G1 X202.09 Y113.357 E27.99414
G1 X202.786 Y113.63 E28.01901
G1 X203.449 Y113.977 E28.0439
G1 X204.072 Y114.392 E28.0688
G1 X204.833 Y115.05 E28.10226
G1 X204.95 Y115.167 E28.10776
G1 X205.45 Y115.724 E28.13265
G1 X205.887 Y116.33 E28.1575
G1 X206.258 Y116.98 E28.1824
G1 X206.557 Y117.666 E28.20729
G1 X206.781 Y118.38 E28.23218
G1 X206.928 Y119.113 E28.25704
G1 X207 Y120.117 E28.29052
G1 X207 Y179.883 E30.27835
G1 X206.96 Y180.63 E30.30323
G1 X206.841 Y181.368 E30.32809
G1 X206.643 Y182.09 E30.35299
G1 X206.37 Y182.786 E30.37786
G1 X206.023 Y183.449 E30.40274
G1 X205.608 Y184.072 E30.42764
G1 X204.95 Y184.833 E30.4611
G1 X204.833 Y184.95 E30.46661
G1 X204.276 Y185.45 E30.4915
G1 X203.67 Y185.887 E30.51635
G1 X203.02 Y186.258 E30.54124
G1 X202.334 Y186.557 E30.56613
G1 X201.62 Y186.781 E30.59102
G1 X200.887 Y186.928 E30.61589
G1 X199.883 Y187 E30.64937
G1 X100.117 Y187 E33.9676
G1 X99.37 Y186.96 E33.99248
G1 X98.632 Y186.841 E34.01734
G1 X97.91 Y186.643 E34.04224
G1 X97.214 Y186.37 E34.06711
G1 X96.551 Y186.023 E34.092
G1 X95.928 Y185.608 E34.11689
G1 X95.167 Y184.95 E34.15035
G1 X95.05 Y184.833 E34.15586
G1 X94.55 Y184.276 E34.18075
G1 X94.113 Y183.67 E34.2056
G1 X93.742 Y183.02 E34.2305
G1 X93.443 Y182.334 E34.25538
G1 X93.219 Y181.62 E34.28027
G1 X93.072 Y180.887 E34.30514
G1 X93 Y179.883 E34.33862
G1 X93 Y120.117 E36.32644
G1 X93.04 Y119.37 E36.35132
G1 X93.159 Y118.632 E36.37619
G1 X93.357 Y117.91 E36.40109
G1 X93.63 Y117.214 E36.42595
G1 X93.977 Y116.551 E36.45084
G1 X94.392 Y115.928 E36.47574
G1 X95.05 Y115.167 E36.5092
G1 X95.167 Y115.05 E36.5147
G1 X95.724 Y114.55 E36.5396
G0 F6000 X95.991 Y114.849
G1 F1200 X96.582 Y114.426 E36.56377
G1 X97.216 Y114.072 E36.58792
G1 X97.885 Y113.789 E36.61208
G1 X98.581 Y113.581 E36.63624
G1 X99.296 Y113.451 E36.66041
G1 X100.117 Y113.4 E36.68777
G1 X199.883 Y113.4 E40.006
G1 X200.608 Y113.44 E40.03016
G1 X201.325 Y113.559 E40.05433
G1 X202.024 Y113.757 E40.07849
G1 X202.697 Y114.03 E40.10265
G1 X203.336 Y114.375 E40.1268
G1 X203.933 Y114.789 E40.15096
G1 X204.55 Y115.333 E40.17832
G1 X204.667 Y115.45 E40.18383
G1 X205.151 Y115.991 E40.20797
G1 X205.574 Y116.582 E40.23214
G1 X205.928 Y117.216 E40.25629
G1 X206.211 Y117.885 E40.28045
G1 X206.419 Y118.581 E40.30462
G1 X206.549 Y119.296 E40.32879
G1 X206.6 Y120.117 E40.35615
G1 X206.6 Y179.883 E42.34397
G1 X206.56 Y180.608 E42.36812
G1 X206.441 Y181.325 E42.39229
G1 X206.243 Y182.024 E42.41646
G1 X205.97 Y182.697 E42.44061
G1 X205.625 Y183.336 E42.46477
G1 X205.211 Y183.933 E42.48893
G1 X204.667 Y184.55 E42.51629
G1 X204.55 Y184.667 E42.52179
G1 X204.009 Y185.151 E42.54594
G1 X203.418 Y185.574 E42.57011
G1 X202.784 Y185.928 E42.59426
G1 X202.115 Y186.211 E42.61842
G1 X201.419 Y186.419 E42.64258
G1 X200.704 Y186.549 E42.66675
G1 X199.883 Y186.6 E42.69411
G1 X100.117 Y186.6 E46.01234
G1 X99.392 Y186.56 E46.03649
G1 X98.675 Y186.441 E46.06067
G1 X97.976 Y186.243 E46.08483
G1 X97.303 Y185.97 E46.10898
G1 X96.664 Y185.625 E46.13314
G1 X96.067 Y185.211 E46.1573
G1 X95.45 Y184.667 E46.18466
G1 X95.333 Y184.55 E46.19016
G1 X94.849 Y184.009 E46.21431
G1 X94.426 Y183.418 E46.23848
G1 X94.072 Y182.784 E46.26263
G1 X93.789 Y182.115 E46.28679
G1 X93.581 Y181.419 E46.31095
G1 X93.451 Y180.704 E46.33512
G1 X93.4 Y179.883 E46.36248
G1 X93.4 Y120.117 E48.35031
G1 X93.44 Y119.392 E48.37446
G1 X93.559 Y118.675 E48.39863
G1 X93.757 Y117.976 E48.4228
G1 X94.03 Y117.303 E48.44695
G1 X94.375 Y116.664 E48.4711
G1 X94.789 Y116.067 E48.49527
G1 X95.333 Y115.45 E48.52263
G1 X95.45 Y115.333 E48.52813
G1 X95.991 Y114.849 E48.55227
G0 F6000 X96.258 Y115.147
G1 F1200 X96.833 Y114.741 E48.57568
G1 X97.451 Y114.403 E48.59911
G1 X98.102 Y114.136 E48.62252
G1 X98.78 Y113.946 E48.64593
G1 X99.475 Y113.833 E48.66935
G1 X100.117 Y113.8 E48.69074
G1 X199.883 Y113.8 E52.00897
G1 X200.586 Y113.84 E52.03239
G1 X201.28 Y113.959 E52.0558
G1 X201.955 Y114.157 E52.0792
G1 X202.604 Y114.429 E52.10261
G1 X203.218 Y114.774 E52.12603
G1 X203.789 Y115.185 E52.14943
G1 X204.267 Y115.616 E52.17084
G1 X204.384 Y115.733 E52.17634
G1 X204.853 Y116.258 E52.19976
G1 X205.259 Y116.833 E52.22317
G1 X205.597 Y117.451 E52.24659
G1 X205.864 Y118.102 E52.27
G1 X206.054 Y118.78 E52.29342
G1 X206.167 Y119.475 E52.31684
G1 X206.2 Y120.117 E52.33822
G1 X206.2 Y179.883 E54.32604
G1 X206.16 Y180.586 E54.34946
G1 X206.041 Y181.28 E54.37288
G1 X205.843 Y181.955 E54.39628
G1 X205.571 Y182.604 E54.41968
G1 X205.226 Y183.218 E54.44311
G1 X204.815 Y183.789 E54.46651
G1 X204.384 Y184.267 E54.48791
G1 X204.267 Y184.384 E54.49342
G1 X203.742 Y184.853 E54.51683
G1 X203.167 Y185.259 E54.54024
G1 X202.549 Y185.597 E54.56367
G1 X201.898 Y185.864 E54.58707
G1 X201.22 Y186.054 E54.61049
G1 X200.525 Y186.167 E54.63391
G1 X199.883 Y186.2 E54.65529
G1 X100.117 Y186.2 E57.97352
G1 X99.414 Y186.16 E57.99694
G1 X98.72 Y186.041 E58.02036
G1 X98.045 Y185.843 E58.04376
G1 X97.396 Y185.571 E58.06717
G1 X96.782 Y185.226 E58.09059
G1 X96.211 Y184.815 E58.11399
G1 X95.733 Y184.384 E58.1354
G1 X95.616 Y184.267 E58.1409
G1 X95.147 Y183.742 E58.16431
G1 X94.741 Y183.167 E58.18773
G1 X94.403 Y182.549 E58.21115
G1 X94.136 Y181.898 E58.23456
G1 X93.946 Y181.22 E58.25798
G1 X93.833 Y180.525 E58.2814
G1 X93.8 Y179.883 E58.30278
G1 X93.8 Y120.117 E60.2906
G1 X93.84 Y119.414 E60.31402
G1 X93.959 Y118.72 E60.33744
G1 X94.157 Y118.045 E60.36084
G1 X94.429 Y117.396 E60.38424
G1 X94.774 Y116.782 E60.40767
G1 X95.185 Y116.211 E60.43107
G1 X95.616 Y115.733 E60.45247
G1 X95.733 Y115.616 E60.45798
G1 X96.258 Y115.147 E60.48139
G0 F6000 X96.525 Y115.446
G1 F1200 X97.083 Y115.057 E60.50401
G1 X97.683 Y114.735 E60.52666
G1 X98.317 Y114.486 E60.54932
G1 X98.976 Y114.313 E60.57198
G1 X99.65 Y114.219 E60.59461
G1 X100.117 Y114.2 E60.61016
G1 X199.883 Y114.2 E63.92839
G1 X200.563 Y114.24 E63.95105
G1 X201.233 Y114.359 E63.97368
G1 X201.885 Y114.556 E63.99633
G1 X202.509 Y114.828 E64.01897
G1 X203.097 Y115.172 E64.04163
G1 X203.641 Y115.582 E64.06429
G1 X203.984 Y115.899 E64.07982
G1 X204.101 Y116.016 E64.08533
G1 X204.554 Y116.525 E64.10799
G1 X204.943 Y117.083 E64.13061
G1 X205.265 Y117.683 E64.15326
G1 X205.514 Y118.317 E64.17592
G1 X205.687 Y118.976 E64.19858
G1 X205.781 Y119.65 E64.22121
G1 X205.8 Y120.117 E64.23676
G1 X205.8 Y179.883 E66.22458
G1 X205.76 Y180.563 E66.24724
G1 X205.641 Y181.233 E66.26987
G1 X205.444 Y181.885 E66.29252
G1 X205.172 Y182.509 E66.31516
G1 X204.828 Y183.097 E66.33782
G1 X204.418 Y183.641 E66.36048
G1 X204.101 Y183.984 E66.37601
G1 X203.984 Y184.101 E66.38152
G1 X203.475 Y184.554 E66.40418
G1 X202.917 Y184.943 E66.4268
G1 X202.317 Y185.265 E66.44945
G1 X201.683 Y185.514 E66.47211
G1 X201.024 Y185.687 E66.49477
G1 X200.35 Y185.781 E66.5174
G1 X199.883 Y185.8 E66.53295
G1 X100.117 Y185.8 E69.85118
G1 X99.437 Y185.76 E69.87383
G1 X98.767 Y185.641 E69.89647
G1 X98.115 Y185.444 E69.91912
G1 X97.491 Y185.172 E69.94176
G1 X96.903 Y184.828 E69.96442
G1 X96.359 Y184.418 E69.98708
G1 X96.016 Y184.101 E70.00261
G1 X95.899 Y183.984 E70.00811
G1 X95.446 Y183.475 E70.03078
G1 X95.057 Y182.917 E70.0534
G1 X94.735 Y182.317 E70.07605
G1 X94.486 Y181.683 E70.0987
G1 X94.313 Y181.024 E70.12137
G1 X94.219 Y180.35 E70.144
G1 X94.2 Y179.883 E70.15954
G1 X94.2 Y120.117 E72.14737
G1 X94.24 Y119.437 E72.17003
G1 X94.359 Y118.767 E72.19266
G1 X94.556 Y118.115 E72.21531
G1 X94.828 Y117.491 E72.23795
G1 X95.172 Y116.903 E72.26061
G1 X95.582 Y116.359 E72.28327
G1 X95.899 Y116.016 E72.2988
G1 X96.016 Y115.899 E72.30431
G1 X96.525 Y115.446 E72.32697
G0 F6000 X96.791 Y115.746
G1 F1200 X97.332 Y115.374 E72.34881
G1 X97.914 Y115.07 E72.37064
G1 X98.529 Y114.839 E72.3925
G1 X99.168 Y114.684 E72.41436
G1 X100.117 Y114.6 E72.44605
G1 X199.883 Y114.6 E75.76428
G1 X200.539 Y114.64 E75.78614
G1 X201.185 Y114.759 E75.80799
G1 X201.812 Y114.956 E75.82985
G1 X202.41 Y115.228 E75.8517
G1 X202.971 Y115.57 E75.87355
G1 X203.701 Y116.182 E75.90524
G1 X203.818 Y116.299 E75.91074
G1 X204.254 Y116.791 E75.9326
G1 X204.626 Y117.332 E75.95444
G1 X204.93 Y117.914 E75.97628
G1 X205.161 Y118.529 E75.99813
G1 X205.316 Y119.168 E76.02
G1 X205.4 Y120.117 E76.05169
G1 X205.4 Y179.883 E78.03951
G1 X205.36 Y180.539 E78.06137
G1 X205.241 Y181.185 E78.08322
G1 X205.044 Y181.812 E78.10508
G1 X204.772 Y182.41 E78.12693
G1 X204.43 Y182.971 E78.14878
G1 X203.818 Y183.701 E78.18046
G1 X203.701 Y183.818 E78.18597
G1 X203.209 Y184.254 E78.20783
G1 X202.668 Y184.626 E78.22967
G1 X202.086 Y184.93 E78.25151
G1 X201.471 Y185.161 E78.27336
G1 X200.832 Y185.316 E78.29523
G1 X199.883 Y185.4 E78.32692
G1 X100.117 Y185.4 E81.64515
G1 X99.461 Y185.36 E81.66701
G1 X98.815 Y185.241 E81.68885
G1 X98.188 Y185.044 E81.71071
G1 X97.59 Y184.772 E81.73256
G1 X97.029 Y184.43 E81.75442
G1 X96.299 Y183.818 E81.7861
G1 X96.182 Y183.701 E81.7916
G1 X95.746 Y183.209 E81.81347
G1 X95.374 Y182.668 E81.8353
G1 X95.07 Y182.086 E81.85714
G1 X94.839 Y181.471 E81.87899
G1 X94.684 Y180.832 E81.90086
G1 X94.6 Y179.883 E81.93255
G1 X94.6 Y120.117 E83.92038
G1 X94.64 Y119.461 E83.94224
G1 X94.759 Y118.815 E83.96408
G1 X94.956 Y118.188 E83.98594
G1 X95.228 Y117.59 E84.00779
G1 X95.57 Y117.029 E84.02965
G1 X96.182 Y116.299 E84.06133
G1 X96.299 Y116.182 E84.06683
G1 X96.791 Y115.746 E84.0887
G0 F6000 X97.056 Y116.047
G1 F1200 X97.579 Y115.692 E84.10972
G1 X98.143 Y115.406 E84.13075
G1 X98.738 Y115.194 E84.15176
G1 X99.356 Y115.058 E84.17281
G1 X100.117 Y115 E84.19819
G1 X199.883 Y115 E87.51642
G1 X200.514 Y115.04 E87.53745
G1 X201.135 Y115.159 E87.55848
G1 X201.735 Y115.356 E87.57949
G1 X202.307 Y115.627 E87.60054
G1 X202.839 Y115.967 E87.62154
G1 X203.419 Y116.464 E87.64694
G1 X203.536 Y116.581 E87.65245
G1 X203.953 Y117.056 E87.67347
G1 X204.308 Y117.579 E87.69449
G1 X204.594 Y118.143 E87.71553
G1 X204.806 Y118.738 E87.73653
G1 X204.942 Y119.356 E87.75758
G1 X205 Y120.117 E87.78297
G1 X205 Y179.883 E89.77079
G1 X204.96 Y180.514 E89.79182
G1 X204.841 Y181.135 E89.81285
G1 X204.644 Y181.735 E89.83385
G1 X204.373 Y182.307 E89.85491
G1 X204.033 Y182.839 E89.87591
G1 X203.536 Y183.419 E89.90131
G1 X203.419 Y183.536 E89.90681
G1 X202.944 Y183.953 E89.92784
G1 X202.421 Y184.308 E89.94886
G1 X201.857 Y184.594 E89.96989
G1 X201.262 Y184.806 E89.9909
G1 X200.644 Y184.942 E90.01195
G1 X199.883 Y185 E90.03733
G1 X100.117 Y185 E93.35556
G1 X99.486 Y184.96 E93.37659
G1 X98.865 Y184.841 E93.39762
G1 X98.265 Y184.644 E93.41863
G1 X97.693 Y184.373 E93.43968
G1 X97.161 Y184.033 E93.46068
G1 X96.581 Y183.536 E93.48608
