;FLAVOR:Marlin
;TIME:7783
;Filament used: 6.54889m
;Layer height: 0.2
;MINX:90.2
;MINY:111.2
;MINZ:0.2
;MAXX:209.8
;MAXY:188.8
;MAXZ:5
;Generated with Cura_SteamEngine 4.8.0
M140 S70
M105
M190 S70
M104 S230
M105
M109 S230
M82 ;absolute extrusion mode
M201 X500.00 Y500.00 Z100.00 E5000.00 ;Setup machine max acceleration
M203 X500.00 Y500.00 Z10.00 E50.00 ;Setup machine max feedrate
M204 P500.00 R1000.00 T500.00 ;Setup Print/Retract/Travel acceleration
M205 X8.00 Y8.00 Z0.40 E5.00 ;Setup Jerk
M220 S100 ;Reset Feedrate
M221 S100 ;Reset Flowrate

G28 ;Home

G92 E0 ;Reset Extruder
G1 Z2.0 F3000 ;Move Z Axis up
G1 X10.1 Y20 Z0.28 F5000.0 ;Move to start position
G1 X10.1 Y200.0 Z0.28 F1500.0 E15 ;Draw the first line
G1 X10.4 Y200.0 Z0.28 F5000.0 ;Move to side a little
G1 X10.4 Y20 Z0.28 F1500.0 E30 ;Draw the second line
G92 E0 ;Reset Extruder
G1 Z2.0 F3000 ;Move Z Axis up

G92 E0
G92 E0
G1 F2700 E-5
;LAYER_COUNT:25
;LAYER:0
M107
G0 F6000 X95.438 Y112.955 Z0.2
;TYPE:SKIRT
G1 F2700 E0
G1 F1200 X96.074 Y112.488 E0.02624
G1 X96.754 Y112.087 E0.0525
G1 X97.472 Y111.757 E0.07878
G1 X98.219 Y111.502 E0.10504
G1 X98.988 Y111.323 E0.1313
G1 X99.772 Y111.223 E0.15758
G1 X100.367 Y111.2 E0.17739
G1 X199.633 Y111.2 E3.47899
G1 X200.422 Y111.24 E3.50526
G1 X201.202 Y111.359 E3.53151
G1 X201.967 Y111.557 E3.55779
G1 X202.707 Y111.831 E3.58404
G1 X203.416 Y112.179 E3.6103
G1 X204.087 Y112.597 E3.6366
G1 X204.711 Y113.08 E3.66284
G1 X205.148 Y113.485 E3.68266
G1 X205.265 Y113.602 E3.68816
G1 X205.795 Y114.188 E3.71444
G1 X206.262 Y114.824 E3.74069
G1 X206.663 Y115.504 E3.76694
G1 X206.993 Y116.222 E3.79323
G1 X207.248 Y116.969 E3.81948
G1 X207.427 Y117.738 E3.84574
G1 X207.527 Y118.522 E3.87203
G1 X207.55 Y119.141 E3.89263
G1 X208.045 Y119.688 E3.91717
G1 X208.512 Y120.324 E3.94341
G1 X208.913 Y121.004 E3.96967
G1 X209.243 Y121.722 E3.99595
G1 X209.498 Y122.469 E4.0222
G1 X209.677 Y123.238 E4.04846
G1 X209.777 Y124.022 E4.07475
G1 X209.8 Y124.617 E4.09455
G1 X209.8 Y180.883 E5.96597
G1 X209.76 Y181.672 E5.99224
G1 X209.641 Y182.452 E6.01849
G1 X209.443 Y183.217 E6.04477
G1 X209.169 Y183.957 E6.07102
G1 X208.821 Y184.666 E6.09728
G1 X208.403 Y185.337 E6.12358
G1 X207.92 Y185.961 E6.14982
G1 X207.515 Y186.398 E6.16964
G1 X207.398 Y186.515 E6.17514
G1 X206.812 Y187.045 E6.20142
G1 X206.176 Y187.512 E6.22767
G1 X205.496 Y187.913 E6.25392
G1 X204.778 Y188.243 E6.28021
G1 X204.031 Y188.498 E6.30646
G1 X203.262 Y188.677 E6.33272
G1 X202.478 Y188.777 E6.35901
G1 X201.883 Y188.8 E6.37881
G1 X98.117 Y188.8 E9.83008
G1 X97.328 Y188.76 E9.85636
G1 X96.548 Y188.641 E9.8826
G1 X95.783 Y188.443 E9.90888
G1 X95.043 Y188.169 E9.93513
G1 X94.334 Y187.821 E9.9614
G1 X93.663 Y187.403 E9.98769
G1 X93.039 Y186.92 E10.01394
G1 X92.602 Y186.515 E10.03375
G1 X92.485 Y186.398 E10.03926
G1 X91.955 Y185.812 E10.06554
G1 X91.488 Y185.176 E10.09178
G1 X91.087 Y184.496 E10.11804
G1 X90.757 Y183.778 E10.14432
G1 X90.502 Y183.031 E10.17057
G1 X90.323 Y182.262 E10.19683
G1 X90.223 Y181.478 E10.22312
G1 X90.2 Y180.883 E10.24293
G1 X90.2 Y124.617 E12.11434
G1 X90.24 Y123.828 E12.14062
G1 X90.359 Y123.048 E12.16686
G1 X90.557 Y122.283 E12.19314
G1 X90.831 Y121.543 E12.21939
G1 X91.179 Y120.834 E12.24566
G1 X91.597 Y120.163 E12.27195
G1 X92.08 Y119.539 E12.2982
G1 X92.45 Y119.14 E12.31629
G1 X92.49 Y118.328 E12.34333
G1 X92.609 Y117.548 E12.36958
G1 X92.807 Y116.783 E12.39586
G1 X93.081 Y116.043 E12.4221
G1 X93.429 Y115.334 E12.44837
G1 X93.847 Y114.663 E12.47467
G1 X94.33 Y114.039 E12.50091
G1 X94.735 Y113.602 E12.52073
G1 X94.852 Y113.485 E12.52623
G1 X95.438 Y112.955 E12.55251
G0 F6000 X95.706 Y113.253
G1 F1200 X96.328 Y112.8 E12.57811
G1 X96.993 Y112.414 E12.60368
G1 X97.695 Y112.099 E12.62927
G1 X98.426 Y111.859 E12.65486
G1 X99.177 Y111.696 E12.68042
G1 X99.942 Y111.612 E12.70602
G1 X100.367 Y111.6 E12.72016
G1 X199.633 Y111.6 E16.02176
G1 X200.401 Y111.64 E16.04734
G1 X201.161 Y111.759 E16.07292
G1 X201.904 Y111.957 E16.0985
G1 X202.623 Y112.231 E16.12409
G1 X203.309 Y112.578 E16.14966
G1 X203.956 Y112.994 E16.17524
G1 X204.556 Y113.475 E16.20082
G1 X204.866 Y113.767 E16.21498
G1 X204.983 Y113.884 E16.22049
G1 X205.497 Y114.456 E16.24607
G1 X205.95 Y115.078 E16.27166
G1 X206.336 Y115.743 E16.29723
G1 X206.651 Y116.445 E16.32282
G1 X206.891 Y117.176 E16.34841
G1 X207.054 Y117.927 E16.37397
G1 X207.138 Y118.692 E16.39957
G1 X207.15 Y119.117 E16.41371
G1 X207.15 Y119.301 E16.41983
G1 X207.233 Y119.384 E16.42374
G1 X207.747 Y119.956 E16.44931
G1 X208.2 Y120.578 E16.47491
G1 X208.586 Y121.243 E16.50048
G1 X208.901 Y121.945 E16.52607
G1 X209.141 Y122.676 E16.55166
G1 X209.304 Y123.427 E16.57722
G1 X209.388 Y124.192 E16.60282
G1 X209.4 Y124.617 E16.61696
G1 X209.4 Y180.883 E18.48837
G1 X209.36 Y181.651 E18.51395
G1 X209.241 Y182.411 E18.53954
G1 X209.043 Y183.154 E18.56511
G1 X208.769 Y183.873 E18.5907
G1 X208.422 Y184.559 E18.61627
G1 X208.006 Y185.206 E18.64186
G1 X207.525 Y185.806 E18.66743
G1 X207.233 Y186.116 E18.6816
G1 X207.116 Y186.233 E18.6871
G1 X206.544 Y186.747 E18.71268
G1 X205.922 Y187.2 E18.73827
G1 X205.257 Y187.586 E18.76385
G1 X204.555 Y187.901 E18.78944
G1 X203.824 Y188.141 E18.81503
G1 X203.073 Y188.304 E18.84059
G1 X202.308 Y188.388 E18.86619
G1 X201.883 Y188.4 E18.88033
G1 X98.117 Y188.4 E22.3316
G1 X97.349 Y188.36 E22.35718
G1 X96.589 Y188.241 E22.38276
G1 X95.846 Y188.043 E22.40834
G1 X95.127 Y187.769 E22.43393
G1 X94.441 Y187.422 E22.4595
G1 X93.794 Y187.006 E22.48508
G1 X93.194 Y186.525 E22.51066
G1 X92.884 Y186.233 E22.52482
G1 X92.767 Y186.116 E22.53033
G1 X92.253 Y185.544 E22.5559
G1 X91.8 Y184.922 E22.5815
G1 X91.414 Y184.257 E22.60707
G1 X91.099 Y183.555 E22.63266
G1 X90.859 Y182.824 E22.65825
G1 X90.696 Y182.073 E22.68381
G1 X90.612 Y181.308 E22.70941
G1 X90.6 Y180.883 E22.72355
G1 X90.6 Y124.617 E24.59496
G1 X90.64 Y123.849 E24.62054
G1 X90.759 Y123.089 E24.64613
G1 X90.957 Y122.346 E24.6717
G1 X91.231 Y121.627 E24.69729
G1 X91.578 Y120.941 E24.72286
G1 X91.994 Y120.294 E24.74845
G1 X92.475 Y119.694 E24.77402
G1 X92.767 Y119.384 E24.78819
G1 X92.85 Y119.301 E24.79209
G1 X92.85 Y119.117 E24.79821
G1 X92.89 Y118.349 E24.82379
G1 X93.009 Y117.589 E24.84938
G1 X93.207 Y116.846 E24.87495
G1 X93.481 Y116.127 E24.90054
G1 X93.828 Y115.441 E24.92611
G1 X94.244 Y114.794 E24.9517
G1 X94.725 Y114.194 E24.97727
G1 X95.017 Y113.884 E24.99144
G1 X95.134 Y113.767 E24.99694
G1 X95.706 Y113.253 E25.02252
G0 F6000 X95.974 Y113.55
G1 F1200 X96.58 Y113.113 E25.04737
G1 X97.23 Y112.742 E25.07226
G1 X97.916 Y112.443 E25.09715
G1 X98.63 Y112.219 E25.12204
G1 X99.363 Y112.072 E25.1469
G1 X100.367 Y112 E25.18038
G1 X199.633 Y112 E28.48198
G1 X200.38 Y112.04 E28.50687
G1 X201.118 Y112.159 E28.53173
G1 X201.84 Y112.357 E28.55663
G1 X202.536 Y112.63 E28.58149
G1 X203.199 Y112.977 E28.60638
G1 X203.822 Y113.392 E28.63128
G1 X204.583 Y114.05 E28.66474
G1 X204.7 Y114.167 E28.67025
G1 X205.2 Y114.724 E28.69514
G1 X205.637 Y115.33 E28.71999
G1 X206.008 Y115.98 E28.74488
G1 X206.307 Y116.666 E28.76977
G1 X206.531 Y117.38 E28.79466
G1 X206.678 Y118.113 E28.81953
G1 X206.75 Y119.117 E28.85301
G1 X206.75 Y119.478 E28.86501
G1 X206.95 Y119.667 E28.87416
G1 X207.45 Y120.224 E28.89906
G1 X207.887 Y120.83 E28.92391
G1 X208.258 Y121.48 E28.9488
G1 X208.557 Y122.166 E28.97369
G1 X208.781 Y122.88 E28.99858
G1 X208.928 Y123.613 E29.02345
G1 X209 Y124.617 E29.05692
G1 X209 Y180.883 E30.92834
G1 X208.96 Y181.63 E30.95322
G1 X208.841 Y182.368 E30.97808
G1 X208.643 Y183.09 E31.00298
G1 X208.37 Y183.786 E31.02785
G1 X208.023 Y184.449 E31.05274
G1 X207.608 Y185.072 E31.07764
G1 X206.95 Y185.833 E31.1111
G1 X206.833 Y185.95 E31.1166
G1 X206.276 Y186.45 E31.1415
G1 X205.67 Y186.887 E31.16635
G1 X205.02 Y187.258 E31.19124
G1 X204.334 Y187.557 E31.21613
G1 X203.62 Y187.781 E31.24102
G1 X202.887 Y187.928 E31.26588
G1 X201.883 Y188 E31.29936
G1 X98.117 Y188 E34.75063
G1 X97.37 Y187.96 E34.77551
G1 X96.632 Y187.841 E34.80038
G1 X95.91 Y187.643 E34.82528
G1 X95.214 Y187.37 E34.85014
G1 X94.551 Y187.023 E34.87503
G1 X93.928 Y186.608 E34.89993
G1 X93.167 Y185.95 E34.93339
G1 X93.05 Y185.833 E34.93889
G1 X92.55 Y185.276 E34.96379
G1 X92.113 Y184.67 E34.98864
G1 X91.742 Y184.02 E35.01353
G1 X91.443 Y183.334 E35.03842
G1 X91.219 Y182.62 E35.06331
G1 X91.072 Y181.887 E35.08817
G1 X91 Y180.883 E35.12165
G1 X91 Y124.617 E36.99307
G1 X91.04 Y123.87 E37.01795
G1 X91.159 Y123.132 E37.04281
G1 X91.357 Y122.41 E37.06771
G1 X91.63 Y121.714 E37.09258
G1 X91.977 Y121.051 E37.11747
G1 X92.392 Y120.428 E37.14236
G1 X93.05 Y119.667 E37.17583
G1 X93.25 Y119.475 E37.18505
G1 X93.25 Y119.117 E37.19695
G1 X93.29 Y118.37 E37.22183
G1 X93.409 Y117.632 E37.2467
G1 X93.607 Y116.91 E37.2716
G1 X93.88 Y116.214 E37.29646
G1 X94.227 Y115.551 E37.32135
G1 X94.642 Y114.928 E37.34625
G1 X95.3 Y114.167 E37.37971
G1 X95.417 Y114.05 E37.38521
G1 X95.974 Y113.55 E37.41011
G0 F6000 X96.241 Y113.849
G1 F1200 X96.832 Y113.426 E37.43428
G1 X97.466 Y113.072 E37.45843
G1 X98.135 Y112.789 E37.48259
G1 X98.831 Y112.581 E37.50675
G1 X99.546 Y112.451 E37.53093
G1 X100.367 Y112.4 E37.55828
G1 X199.633 Y112.4 E40.85989
G1 X200.358 Y112.44 E40.88404
G1 X201.075 Y112.559 E40.90821
G1 X201.774 Y112.757 E40.93237
G1 X202.447 Y113.03 E40.95653
G1 X203.086 Y113.375 E40.98068
G1 X203.683 Y113.789 E41.00484
G1 X204.3 Y114.333 E41.0322
G1 X204.417 Y114.45 E41.03771
G1 X204.901 Y114.991 E41.06185
G1 X205.324 Y115.582 E41.08602
G1 X205.678 Y116.216 E41.11017
G1 X205.961 Y116.885 E41.13434
G1 X206.169 Y117.581 E41.1585
G1 X206.299 Y118.296 E41.18267
G1 X206.35 Y119.117 E41.21003
G1 X206.35 Y119.657 E41.22799
G1 X206.55 Y119.833 E41.23685
G1 X206.667 Y119.95 E41.24235
G1 X207.151 Y120.491 E41.26649
G1 X207.574 Y121.082 E41.29067
G1 X207.928 Y121.716 E41.31482
G1 X208.211 Y122.385 E41.33898
G1 X208.419 Y123.081 E41.36314
G1 X208.549 Y123.796 E41.38731
G1 X208.6 Y124.617 E41.41467
G1 X208.6 Y180.883 E43.28608
G1 X208.56 Y181.608 E43.31023
G1 X208.441 Y182.325 E43.33441
G1 X208.243 Y183.024 E43.35857
G1 X207.97 Y183.697 E43.38273
G1 X207.625 Y184.336 E43.40688
G1 X207.211 Y184.933 E43.43104
G1 X206.667 Y185.55 E43.4584
G1 X206.55 Y185.667 E43.46391
G1 X206.009 Y186.151 E43.48805
G1 X205.418 Y186.574 E43.51222
G1 X204.784 Y186.928 E43.53637
G1 X204.115 Y187.211 E43.56053
G1 X203.419 Y187.419 E43.58469
G1 X202.704 Y187.549 E43.60887
G1 X201.883 Y187.6 E43.63622
G1 X98.117 Y187.6 E47.0875
G1 X97.392 Y187.56 E47.11165
G1 X96.675 Y187.441 E47.13582
G1 X95.976 Y187.243 E47.15998
G1 X95.303 Y186.97 E47.18414
G1 X94.664 Y186.625 E47.20829
G1 X94.067 Y186.211 E47.23246
G1 X93.45 Y185.667 E47.25981
G1 X93.333 Y185.55 E47.26532
G1 X92.849 Y185.009 E47.28946
G1 X92.426 Y184.418 E47.31363
G1 X92.072 Y183.784 E47.33779
G1 X91.789 Y183.115 E47.36195
G1 X91.581 Y182.419 E47.38611
G1 X91.451 Y181.704 E47.41028
G1 X91.4 Y180.883 E47.43764
G1 X91.4 Y124.617 E49.30905
G1 X91.44 Y123.892 E49.3332
G1 X91.559 Y123.175 E49.35737
G1 X91.757 Y122.476 E49.38154
G1 X92.03 Y121.803 E49.40569
G1 X92.375 Y121.164 E49.42985
G1 X92.789 Y120.567 E49.45401
G1 X93.333 Y119.95 E49.48137
G1 X93.45 Y119.833 E49.48687
G1 X93.65 Y119.654 E49.4958
G1 X93.65 Y119.117 E49.51366
G1 X93.69 Y118.392 E49.53781
G1 X93.809 Y117.675 E49.56198
G1 X94.007 Y116.976 E49.58615
G1 X94.28 Y116.303 E49.6103
G1 X94.625 Y115.664 E49.63446
G1 X95.039 Y115.067 E49.65862
G1 X95.583 Y114.45 E49.68598
G1 X95.7 Y114.333 E49.69148
G1 X96.241 Y113.849 E49.71563
G0 F6000 X96.508 Y114.147
G1 F1200 X97.083 Y113.741 E49.73904
G1 X97.701 Y113.403 E49.76247
G1 X98.352 Y113.136 E49.78587
G1 X99.03 Y112.946 E49.80929
G1 X99.725 Y112.833 E49.83271
G1 X100.367 Y112.8 E49.85409
G1 X199.633 Y112.8 E53.15569
G1 X200.336 Y112.84 E53.17911
G1 X201.03 Y112.959 E53.20253
G1 X201.705 Y113.157 E53.22592
G1 X202.354 Y113.429 E53.24933
G1 X202.968 Y113.774 E53.27275
G1 X203.539 Y114.185 E53.29615
G1 X204.017 Y114.616 E53.31756
G1 X204.134 Y114.733 E53.32306
G1 X204.603 Y115.258 E53.34648
G1 X205.009 Y115.833 E53.36989
G1 X205.347 Y116.451 E53.39332
G1 X205.614 Y117.102 E53.41672
G1 X205.804 Y117.78 E53.44014
G1 X205.917 Y118.475 E53.46356
G1 X205.95 Y119.117 E53.48494
G1 X205.95 Y119.83 E53.50865
G1 X206.267 Y120.116 E53.52286
G1 X206.384 Y120.233 E53.52836
G1 X206.853 Y120.758 E53.55177
G1 X207.259 Y121.333 E53.57518
G1 X207.597 Y121.951 E53.59861
G1 X207.864 Y122.602 E53.62202
G1 X208.054 Y123.28 E53.64543
G1 X208.167 Y123.975 E53.66885
G1 X208.2 Y124.617 E53.69024
G1 X208.2 Y180.883 E55.56165
G1 X208.16 Y181.586 E55.58507
G1 X208.041 Y182.28 E55.60849
G1 X207.843 Y182.955 E55.63189
G1 X207.571 Y183.604 E55.65529
G1 X207.226 Y184.218 E55.67872
G1 X206.815 Y184.789 E55.70211
G1 X206.384 Y185.267 E55.72352
G1 X206.267 Y185.384 E55.72902
G1 X205.742 Y185.853 E55.75244
G1 X205.167 Y186.259 E55.77585
G1 X204.549 Y186.597 E55.79928
G1 X203.898 Y186.864 E55.82268
G1 X203.22 Y187.054 E55.8461
G1 X202.525 Y187.167 E55.86952
G1 X201.883 Y187.2 E55.8909
G1 X98.117 Y187.2 E59.34217
G1 X97.414 Y187.16 E59.36559
G1 X96.72 Y187.041 E59.38901
G1 X96.045 Y186.843 E59.41241
G1 X95.396 Y186.571 E59.43581
G1 X94.782 Y186.226 E59.45924
G1 X94.211 Y185.815 E59.48264
G1 X93.733 Y185.384 E59.50404
G1 X93.616 Y185.267 E59.50955
G1 X93.147 Y184.742 E59.53296
G1 X92.741 Y184.167 E59.55637
G1 X92.403 Y183.549 E59.5798
G1 X92.136 Y182.898 E59.6032
G1 X91.946 Y182.22 E59.62662
G1 X91.833 Y181.525 E59.65004
G1 X91.8 Y180.883 E59.67142
G1 X91.8 Y124.617 E61.54284
G1 X91.84 Y123.914 E61.56626
G1 X91.959 Y123.22 E61.58968
G1 X92.157 Y122.545 E61.61307
G1 X92.429 Y121.896 E61.63648
G1 X92.774 Y121.282 E61.6599
G1 X93.185 Y120.711 E61.6833
G1 X93.616 Y120.233 E61.70471
G1 X93.733 Y120.116 E61.71021
G1 X94.05 Y119.833 E61.72435
G1 X94.05 Y119.117 E61.74816
G1 X94.09 Y118.414 E61.77158
G1 X94.209 Y117.72 E61.795
G1 X94.407 Y117.045 E61.8184
G1 X94.679 Y116.396 E61.8418
G1 X95.024 Y115.782 E61.86523
G1 X95.435 Y115.211 E61.88863
G1 X95.866 Y114.733 E61.91003
G1 X95.983 Y114.616 E61.91554
G1 X96.508 Y114.147 E61.93895
G0 F6000 X96.775 Y114.446
G1 F1200 X97.333 Y114.057 E61.96158
G1 X97.933 Y113.735 E61.98422
G1 X98.567 Y113.486 E62.00688
G1 X99.226 Y113.313 E62.02954
G1 X99.9 Y113.219 E62.05217
G1 X100.367 Y113.2 E62.06772
G1 X199.633 Y113.2 E65.36932
G1 X200.313 Y113.24 E65.39198
G1 X200.983 Y113.359 E65.41461
G1 X201.635 Y113.556 E65.43726
G1 X202.259 Y113.828 E65.4599
G1 X202.847 Y114.172 E65.48256
G1 X203.391 Y114.582 E65.50522
G1 X203.734 Y114.899 E65.52075
G1 X203.851 Y115.016 E65.52626
G1 X204.304 Y115.525 E65.54892
G1 X204.693 Y116.083 E65.57154
G1 X205.015 Y116.683 E65.59419
G1 X205.264 Y117.317 E65.61685
G1 X205.437 Y117.976 E65.63951
G1 X205.531 Y118.65 E65.66214
G1 X205.55 Y119.117 E65.67769
G1 X205.55 Y120.013 E65.70749
G1 X205.641 Y120.082 E65.71129
G1 X205.984 Y120.399 E65.72682
G1 X206.101 Y120.516 E65.73232
G1 X206.554 Y121.025 E65.75499
G1 X206.943 Y121.583 E65.77761
G1 X207.265 Y122.183 E65.80026
G1 X207.514 Y122.817 E65.82291
G1 X207.687 Y123.476 E65.84557
G1 X207.781 Y124.15 E65.86821
G1 X207.8 Y124.617 E65.88375
G1 X207.8 Y180.883 E67.75517
G1 X207.76 Y181.563 E67.77783
G1 X207.641 Y182.233 E67.80046
G1 X207.444 Y182.885 E67.82311
G1 X207.172 Y183.509 E67.84575
G1 X206.828 Y184.097 E67.86841
G1 X206.418 Y184.641 E67.89107
G1 X206.101 Y184.984 E67.9066
G1 X205.984 Y185.101 E67.9121
G1 X205.475 Y185.554 E67.93477
G1 X204.917 Y185.943 E67.95739
G1 X204.317 Y186.265 E67.98004
G1 X203.683 Y186.514 E68.00269
G1 X203.024 Y186.687 E68.02536
G1 X202.35 Y186.781 E68.04799
G1 X201.883 Y186.8 E68.06354
G1 X98.117 Y186.8 E71.51481
G1 X97.437 Y186.76 E71.53746
G1 X96.767 Y186.641 E71.5601
G1 X96.115 Y186.444 E71.58275
G1 X95.491 Y186.172 E71.60539
G1 X94.903 Y185.828 E71.62805
G1 X94.359 Y185.418 E71.6507
G1 X94.016 Y185.101 E71.66624
G1 X93.899 Y184.984 E71.67174
G1 X93.446 Y184.475 E71.69441
G1 X93.057 Y183.917 E71.71703
G1 X92.735 Y183.317 E71.73968
G1 X92.486 Y182.683 E71.76233
G1 X92.313 Y182.024 E71.78499
G1 X92.219 Y181.35 E71.80763
G1 X92.2 Y180.883 E71.82317
G1 X92.2 Y124.617 E73.69459
G1 X92.24 Y123.937 E73.71724
G1 X92.359 Y123.267 E73.73988
