;FLAVOR:Marlin
;TIME:49391
;Filament used: 36.5551m
;Layer height: 0.2
;MINX:85.2
;MINY:68.7
;MINZ:0.2
;MAXX:214.8
;MAXY:231.3
;MAXZ:67
;Generated with Cura_SteamEngine 4.8.0
M140 S70
M105
M190 S70
M104 S230
M105
M109 S230
M82 ;absolute extrusion mode
M201 X500.00 Y500.00 Z100.00 E5000.00 ;Setup machine max acceleration
M203 X500.00 Y500.00 Z10.00 E50.00 ;Setup machine max feedrate
M204 P500.00 R1000.00 T500.00 ;Setup Print/Retract/Travel acceleration
M205 X8.00 Y8.00 Z0.40 E5.00 ;Setup Jerk
M220 S100 ;Reset Feedrate
M221 S100 ;Reset Flowrate

G28 ;Home

G92 E0 ;Reset Extruder
G1 Z2.0 F3000 ;Move Z Axis up
G1 X10.1 Y20 Z0.28 F5000.0 ;Move to start position
G1 X10.1 Y200.0 Z0.28 F1500.0 E15 ;Draw the first line
G1 X10.4 Y200.0 Z0.28 F5000.0 ;Move to side a little
G1 X10.4 Y20 Z0.28 F1500.0 E30 ;Draw the second line
G92 E0 ;Reset Extruder
G1 Z2.0 F3000 ;Move Z Axis up

G92 E0
G92 E0
G1 F2700 E-5
;LAYER_COUNT:335
;LAYER:0
M107
G0 F6000 X99.596 Y72.164 Z0.2
;TYPE:SKIRT
G1 F2700 E0
G1 F1200 X100.08 Y71.54 E0.02627
G1 X100.485 Y71.103 E0.04608
G1 X100.602 Y70.986 E0.05159
G1 X101.188 Y70.456 E0.07787
G1 X101.824 Y69.989 E0.10411
G1 X102.504 Y69.588 E0.13037
G1 X103.222 Y69.258 E0.15665
G1 X103.969 Y69.003 E0.1829
G1 X104.738 Y68.824 E0.20916
G1 X105.522 Y68.724 E0.23545
G1 X106.119 Y68.701 E0.25532
G1 X110.202 Y68.702 E0.39112
G1 X110.575 Y68.721 E0.40354
G1 X111.117 Y68.7 E0.42158
G1 X200.883 Y68.7 E3.40721
G1 X201.293 Y68.721 E3.42087
G1 X201.398 Y68.71 E3.42438
G1 X201.8 Y68.7 E3.43775
G1 X205.882 Y68.7 E3.57352
G1 X206.671 Y68.74 E3.5998
G1 X207.451 Y68.859 E3.62604
G1 X208.216 Y69.057 E3.65232
G1 X208.956 Y69.331 E3.67857
G1 X209.665 Y69.679 E3.70484
G1 X210.336 Y70.097 E3.73113
G1 X210.96 Y70.58 E3.75738
G1 X211.397 Y70.985 E3.77719
G1 X211.514 Y71.102 E3.7827
G1 X212.044 Y71.688 E3.80898
G1 X212.511 Y72.324 E3.83522
G1 X212.912 Y73.004 E3.86148
G1 X213.242 Y73.722 E3.88776
G1 X213.497 Y74.469 E3.91401
G1 X213.676 Y75.238 E3.94027
G1 X213.776 Y76.022 E3.96656
G1 X213.799 Y76.617 E3.98636
G1 X213.8 Y136.382 E5.97416
G1 X213.76 Y137.171 E6.00043
G1 X213.641 Y137.951 E6.02668
G1 X213.443 Y138.716 E6.05296
G1 X213.169 Y139.456 E6.0792
G1 X212.821 Y140.165 E6.10547
G1 X212.404 Y140.836 E6.13175
G1 X211.92 Y141.46 E6.15801
G1 X211.515 Y141.897 E6.17783
G1 X211.398 Y142.014 E6.18333
G1 X210.812 Y142.544 E6.20961
G1 X210.176 Y143.011 E6.23586
G1 X209.496 Y143.412 E6.26211
G1 X208.778 Y143.742 E6.2884
G1 X208.031 Y143.997 E6.31465
G1 X207.262 Y144.176 E6.34091
G1 X206.478 Y144.276 E6.3672
G1 X205.881 Y144.299 E6.38707
G1 X201.798 Y144.298 E6.52287
G1 X201.425 Y144.279 E6.53529
G1 X200.883 Y144.3 E6.55333
G1 X111.117 Y144.3 E9.53896
G1 X110.707 Y144.279 E9.55262
G1 X110.602 Y144.29 E9.55613
G1 X110.2 Y144.3 E9.5695
G1 X106.118 Y144.3 E9.70527
G1 X105.329 Y144.26 E9.73155
G1 X104.549 Y144.141 E9.75779
G1 X103.784 Y143.943 E9.78407
G1 X103.044 Y143.669 E9.81032
G1 X102.335 Y143.321 E9.83659
G1 X101.664 Y142.903 E9.86288
G1 X101.04 Y142.42 E9.88912
G1 X100.603 Y142.015 E9.90894
G1 X100.486 Y141.898 E9.91445
G1 X99.956 Y141.312 E9.94072
G1 X99.489 Y140.676 E9.96697
G1 X99.088 Y139.996 E9.99322
G1 X98.758 Y139.278 E10.01951
G1 X98.503 Y138.531 E10.04576
G1 X98.324 Y137.762 E10.07202
G1 X98.224 Y136.978 E10.09831
G1 X98.201 Y136.383 E10.11811
G1 X98.2 Y76.618 E12.1059
G1 X98.24 Y75.829 E12.13218
G1 X98.359 Y75.049 E12.15842
G1 X98.557 Y74.284 E12.18471
G1 X98.831 Y73.544 E12.21095
G1 X99.179 Y72.835 E12.23722
G1 X99.596 Y72.164 E12.2635
G0 F6000 X99.994 Y72.295
G1 F1200 X100.475 Y71.695 E12.28907
G1 X100.767 Y71.385 E12.30324
G1 X100.884 Y71.268 E12.30874
G1 X101.456 Y70.754 E12.33432
G1 X102.078 Y70.301 E12.35991
G1 X102.743 Y69.915 E12.38549
G1 X103.445 Y69.6 E12.41108
G1 X104.176 Y69.36 E12.43667
G1 X104.927 Y69.197 E12.46223
G1 X105.692 Y69.113 E12.48782
G1 X106.119 Y69.101 E12.50203
G1 X110.202 Y69.102 E12.63783
G1 X110.596 Y69.123 E12.65096
G1 X110.692 Y69.112 E12.65417
G1 X111.117 Y69.1 E12.66831
G1 X200.883 Y69.1 E15.65394
G1 X201.365 Y69.125 E15.66999
G1 X201.8 Y69.1 E15.68449
G1 X205.882 Y69.1 E15.82025
G1 X206.65 Y69.14 E15.84583
G1 X207.41 Y69.259 E15.87142
G1 X208.153 Y69.457 E15.89699
G1 X208.872 Y69.731 E15.92258
G1 X209.558 Y70.078 E15.94815
G1 X210.205 Y70.494 E15.97374
G1 X210.805 Y70.975 E15.99931
G1 X211.115 Y71.267 E16.01348
G1 X211.232 Y71.384 E16.01898
G1 X211.746 Y71.956 E16.04456
G1 X212.199 Y72.578 E16.07015
G1 X212.585 Y73.243 E16.09573
G1 X212.9 Y73.945 E16.12132
G1 X213.14 Y74.676 E16.14691
G1 X213.303 Y75.427 E16.17247
G1 X213.387 Y76.192 E16.19806
G1 X213.399 Y76.617 E16.21221
G1 X213.4 Y136.382 E18.2
G1 X213.36 Y137.15 E18.22558
G1 X213.241 Y137.91 E18.25116
G1 X213.043 Y138.653 E18.27674
G1 X212.769 Y139.372 E18.30233
G1 X212.422 Y140.058 E18.3279
G1 X212.006 Y140.705 E18.35348
G1 X211.525 Y141.305 E18.37906
G1 X211.233 Y141.615 E18.39322
G1 X211.116 Y141.732 E18.39873
G1 X210.544 Y142.246 E18.4243
G1 X209.922 Y142.699 E18.4499
G1 X209.257 Y143.085 E18.47547
G1 X208.555 Y143.4 E18.50106
G1 X207.824 Y143.64 E18.52665
G1 X207.073 Y143.803 E18.55221
G1 X206.308 Y143.887 E18.57781
G1 X205.881 Y143.899 E18.59202
G1 X201.798 Y143.898 E18.72782
G1 X201.404 Y143.877 E18.74094
G1 X201.308 Y143.888 E18.74415
G1 X200.883 Y143.9 E18.7583
G1 X111.117 Y143.9 E21.74392
G1 X110.635 Y143.875 E21.75998
G1 X110.2 Y143.9 E21.77447
G1 X106.118 Y143.9 E21.91024
G1 X105.35 Y143.86 E21.93582
G1 X104.59 Y143.741 E21.9614
G1 X103.847 Y143.543 E21.98698
G1 X103.128 Y143.269 E22.01257
G1 X102.442 Y142.922 E22.03814
G1 X101.795 Y142.506 E22.06372
G1 X101.195 Y142.025 E22.0893
G1 X100.885 Y141.733 E22.10346
G1 X100.768 Y141.616 E22.10897
G1 X100.254 Y141.044 E22.13454
G1 X99.801 Y140.422 E22.16014
G1 X99.415 Y139.757 E22.18571
G1 X99.1 Y139.055 E22.2113
G1 X98.86 Y138.324 E22.23689
G1 X98.697 Y137.573 E22.26245
G1 X98.613 Y136.808 E22.28805
G1 X98.601 Y136.383 E22.30219
G1 X98.6 Y76.618 E24.28998
G1 X98.64 Y75.85 E24.31556
G1 X98.759 Y75.09 E24.34115
G1 X98.957 Y74.347 E24.36672
G1 X99.231 Y73.628 E24.39231
G1 X99.578 Y72.942 E24.41788
G1 X99.994 Y72.295 E24.44347
G0 F6000 X100.392 Y72.429
G1 F1200 X101.05 Y71.668 E24.47693
G1 X101.167 Y71.551 E24.48243
G1 X101.724 Y71.051 E24.50732
G1 X102.33 Y70.614 E24.53217
G1 X102.98 Y70.243 E24.55707
G1 X103.666 Y69.944 E24.58196
G1 X104.38 Y69.72 E24.60684
G1 X105.113 Y69.573 E24.63171
G1 X106.119 Y69.501 E24.66526
G1 X110.202 Y69.502 E24.80106
G1 X110.71 Y69.529 E24.81798
G1 X111.117 Y69.5 E24.83155
G1 X200.883 Y69.5 E27.81718
G1 X201.27 Y69.521 E27.83007
G1 X201.283 Y69.519 E27.83051
G1 X201.8 Y69.5 E27.84771
G1 X205.882 Y69.5 E27.98348
G1 X206.629 Y69.54 E28.00836
G1 X207.367 Y69.659 E28.03322
G1 X208.089 Y69.857 E28.05812
G1 X208.785 Y70.13 E28.08299
G1 X209.448 Y70.477 E28.10788
G1 X210.071 Y70.892 E28.13278
G1 X210.832 Y71.55 E28.16624
G1 X210.949 Y71.667 E28.17174
G1 X211.449 Y72.224 E28.19664
G1 X211.886 Y72.83 E28.22149
G1 X212.257 Y73.48 E28.24638
G1 X212.556 Y74.166 E28.27127
G1 X212.78 Y74.88 E28.29616
G1 X212.927 Y75.613 E28.32102
G1 X212.999 Y76.617 E28.3545
G1 X213 Y136.382 E30.34229
G1 X212.96 Y137.129 E30.36717
G1 X212.841 Y137.867 E30.39204
G1 X212.643 Y138.589 E30.41694
G1 X212.37 Y139.285 E30.4418
G1 X212.023 Y139.948 E30.46669
G1 X211.608 Y140.571 E30.49159
G1 X210.95 Y141.332 E30.52505
G1 X210.833 Y141.449 E30.53055
G1 X210.276 Y141.949 E30.55545
G1 X209.67 Y142.386 E30.5803
G1 X209.02 Y142.757 E30.60519
G1 X208.334 Y143.056 E30.63008
G1 X207.62 Y143.28 E30.65497
G1 X206.887 Y143.427 E30.67984
G1 X205.881 Y143.499 E30.71338
G1 X201.798 Y143.498 E30.84918
G1 X201.29 Y143.471 E30.8661
G1 X200.883 Y143.5 E30.87967
G1 X111.117 Y143.5 E33.8653
G1 X110.73 Y143.479 E33.87819
G1 X110.717 Y143.481 E33.87863
G1 X110.2 Y143.5 E33.89584
G1 X106.118 Y143.5 E34.03161
G1 X105.371 Y143.46 E34.05649
G1 X104.633 Y143.341 E34.08135
G1 X103.911 Y143.143 E34.10625
G1 X103.215 Y142.87 E34.13112
G1 X102.552 Y142.523 E34.156
G1 X101.929 Y142.108 E34.1809
G1 X101.168 Y141.45 E34.21436
G1 X101.051 Y141.333 E34.21987
G1 X100.551 Y140.776 E34.24476
G1 X100.114 Y140.17 E34.26961
G1 X99.743 Y139.52 E34.2945
G1 X99.444 Y138.834 E34.31939
G1 X99.22 Y138.12 E34.34428
G1 X99.073 Y137.387 E34.36915
G1 X99.001 Y136.383 E34.40263
G1 X99 Y76.618 E36.39042
G1 X99.04 Y75.871 E36.4153
G1 X99.159 Y75.133 E36.44016
G1 X99.357 Y74.411 E36.46506
G1 X99.63 Y73.715 E36.48993
G1 X99.977 Y73.052 E36.51482
G1 X100.392 Y72.429 E36.53972
G0 F6000 X100.789 Y72.568
G1 F1200 X101.333 Y71.951 E36.56707
G1 X101.45 Y71.834 E36.57258
G1 X101.991 Y71.35 E36.59672
G1 X102.582 Y70.927 E36.62089
G1 X103.216 Y70.573 E36.64505
G1 X103.885 Y70.29 E36.66921
G1 X104.581 Y70.082 E36.69337
G1 X105.296 Y69.952 E36.71754
G1 X106.119 Y69.901 E36.74496
G1 X110.202 Y69.902 E36.88076
G1 X110.67 Y69.928 E36.89635
G1 X111.117 Y69.9 E36.91125
G1 X200.883 Y69.9 E39.89688
G1 X201.395 Y69.928 E39.91393
G1 X201.8 Y69.9 E39.92744
G1 X205.882 Y69.9 E40.0632
G1 X206.607 Y69.94 E40.08735
G1 X207.324 Y70.059 E40.11153
G1 X208.023 Y70.257 E40.13569
G1 X208.696 Y70.53 E40.15985
G1 X209.335 Y70.875 E40.184
G1 X209.932 Y71.289 E40.20816
G1 X210.549 Y71.833 E40.23552
G1 X210.666 Y71.95 E40.24103
G1 X211.15 Y72.491 E40.26517
G1 X211.573 Y73.082 E40.28934
G1 X211.927 Y73.716 E40.31349
G1 X212.21 Y74.385 E40.33765
G1 X212.418 Y75.081 E40.36181
G1 X212.548 Y75.796 E40.38599
G1 X212.599 Y76.617 E40.41334
G1 X212.6 Y136.382 E42.40114
G1 X212.56 Y137.107 E42.42529
G1 X212.441 Y137.824 E42.44946
G1 X212.243 Y138.523 E42.47362
G1 X211.97 Y139.196 E42.49778
G1 X211.625 Y139.835 E42.52193
G1 X211.211 Y140.432 E42.5461
G1 X210.667 Y141.049 E42.57346
G1 X210.55 Y141.166 E42.57896
G1 X210.009 Y141.65 E42.6031
G1 X209.418 Y142.073 E42.62728
G1 X208.784 Y142.427 E42.65143
G1 X208.115 Y142.71 E42.67559
G1 X207.419 Y142.918 E42.69975
G1 X206.704 Y143.048 E42.72392
G1 X205.881 Y143.099 E42.75134
G1 X201.798 Y143.098 E42.88714
G1 X201.33 Y143.072 E42.90273
G1 X200.883 Y143.1 E42.91763
G1 X111.117 Y143.1 E45.90326
G1 X110.605 Y143.072 E45.92031
G1 X110.2 Y143.1 E45.93382
G1 X106.118 Y143.1 E46.06959
G1 X105.393 Y143.06 E46.09374
G1 X104.676 Y142.941 E46.11791
G1 X103.977 Y142.743 E46.14207
G1 X103.304 Y142.47 E46.16623
G1 X102.665 Y142.125 E46.19038
G1 X102.068 Y141.711 E46.21454
G1 X101.451 Y141.167 E46.2419
G1 X101.334 Y141.05 E46.24741
G1 X100.85 Y140.509 E46.27155
G1 X100.427 Y139.918 E46.29572
G1 X100.073 Y139.284 E46.31988
G1 X99.79 Y138.615 E46.34404
G1 X99.582 Y137.919 E46.3682
G1 X99.452 Y137.204 E46.39237
G1 X99.401 Y136.383 E46.41973
G1 X99.4 Y76.618 E48.40752
G1 X99.44 Y75.893 E48.43167
G1 X99.559 Y75.176 E48.45584
G1 X99.757 Y74.477 E48.48001
G1 X100.03 Y73.804 E48.50416
G1 X100.375 Y73.165 E48.52831
G1 X100.789 Y72.568 E48.55248
G0 F6000 X100.774 Y73.283
G1 F1200 X101.185 Y72.712 E48.57588
G1 X101.616 Y72.234 E48.59728
G1 X101.733 Y72.117 E48.60279
G1 X102.258 Y71.648 E48.6262
G1 X102.833 Y71.242 E48.64961
G1 X103.451 Y70.904 E48.67304
G1 X104.102 Y70.637 E48.69644
G1 X104.78 Y70.447 E48.71986
G1 X105.475 Y70.334 E48.74328
G1 X106.119 Y70.301 E48.76473
G1 X110.202 Y70.302 E48.90053
G1 X110.618 Y70.326 E48.91439
G1 X111.117 Y70.3 E48.93101
G1 X200.883 Y70.3 E51.91664
G1 X201.295 Y70.323 E51.93036
G1 X201.8 Y70.3 E51.94718
G1 X205.882 Y70.3 E52.08295
G1 X206.585 Y70.34 E52.10637
G1 X207.279 Y70.459 E52.12978
G1 X207.954 Y70.657 E52.15318
G1 X208.603 Y70.929 E52.17659
G1 X209.217 Y71.274 E52.20001
G1 X209.788 Y71.685 E52.22341
G1 X210.266 Y72.116 E52.24482
G1 X210.383 Y72.233 E52.25032
G1 X210.852 Y72.758 E52.27373
G1 X211.258 Y73.333 E52.29715
G1 X211.596 Y73.951 E52.32057
G1 X211.863 Y74.602 E52.34398
G1 X212.053 Y75.28 E52.3674
G1 X212.166 Y75.975 E52.39082
G1 X212.199 Y76.617 E52.4122
G1 X212.2 Y136.382 E54.39999
G1 X212.16 Y137.085 E54.42341
G1 X212.041 Y137.779 E54.44683
G1 X211.843 Y138.454 E54.47022
G1 X211.571 Y139.103 E54.49363
G1 X211.226 Y139.717 E54.51705
G1 X210.815 Y140.288 E54.54045
G1 X210.384 Y140.766 E54.56186
G1 X210.267 Y140.883 E54.56736
G1 X209.742 Y141.352 E54.59078
G1 X209.167 Y141.758 E54.61419
G1 X208.549 Y142.096 E54.63762
G1 X207.898 Y142.363 E54.66102
G1 X207.22 Y142.553 E54.68444
G1 X206.525 Y142.666 E54.70786
G1 X205.881 Y142.699 E54.72931
G1 X201.798 Y142.698 E54.86511
G1 X201.382 Y142.674 E54.87897
G1 X200.883 Y142.7 E54.89559
G1 X111.117 Y142.7 E57.88122
G1 X110.705 Y142.677 E57.89494
G1 X110.2 Y142.7 E57.91175
G1 X106.118 Y142.7 E58.04752
G1 X105.415 Y142.66 E58.07094
G1 X104.721 Y142.541 E58.09436
G1 X104.046 Y142.343 E58.11776
G1 X103.397 Y142.071 E58.14116
G1 X102.783 Y141.726 E58.16459
G1 X102.212 Y141.315 E58.18799
G1 X101.734 Y140.884 E58.20939
G1 X101.617 Y140.767 E58.2149
G1 X101.148 Y140.242 E58.23831
G1 X100.742 Y139.667 E58.26172
G1 X100.404 Y139.049 E58.28515
G1 X100.137 Y138.398 E58.30855
G1 X99.947 Y137.72 E58.33197
G1 X99.834 Y137.025 E58.35539
G1 X99.801 Y136.383 E58.37677
G1 X99.8 Y76.618 E60.36457
G1 X99.84 Y75.915 E60.38799
G1 X99.959 Y75.221 E60.4114
G1 X100.157 Y74.546 E60.4348
G1 X100.429 Y73.897 E60.45821
G1 X100.774 Y73.283 E60.48163
G0 F6000 X101.172 Y73.404
G1 F1200 X101.582 Y72.861 E60.50426
G1 X101.899 Y72.517 E60.51982
G1 X102.016 Y72.4 E60.52532
G1 X102.525 Y71.947 E60.54799
G1 X103.083 Y71.558 E60.57061
G1 X103.683 Y71.236 E60.59326
G1 X104.317 Y70.987 E60.61591
G1 X104.976 Y70.814 E60.63857
G1 X105.65 Y70.72 E60.66121
G1 X106.118 Y70.701 E60.67679
G1 X110.201 Y70.702 E60.81259
G1 X110.603 Y70.726 E60.82598
G1 X110.65 Y70.719 E60.82756
G1 X111.117 Y70.7 E60.84311
G1 X200.883 Y70.7 E63.82874
G1 X201.413 Y70.731 E63.8464
G1 X201.8 Y70.7 E63.85931
G1 X205.882 Y70.7 E63.99508
G1 X206.562 Y70.74 E64.01773
G1 X207.232 Y70.859 E64.04037
G1 X207.884 Y71.056 E64.06302
G1 X208.508 Y71.328 E64.08566
G1 X209.096 Y71.672 E64.10832
G1 X209.64 Y72.082 E64.13097
G1 X209.983 Y72.399 E64.14651
G1 X210.1 Y72.516 E64.15201
G1 X210.553 Y73.025 E64.17468
G1 X210.942 Y73.583 E64.1973
G1 X211.264 Y74.183 E64.21995
G1 X211.513 Y74.817 E64.2426
G1 X211.686 Y75.476 E64.26526
G1 X211.78 Y76.15 E64.2879
G1 X211.799 Y76.617 E64.30344
G1 X211.8 Y136.382 E66.29124
G1 X211.76 Y137.062 E66.31389
G1 X211.641 Y137.732 E66.33652
G1 X211.444 Y138.384 E66.35918
G1 X211.172 Y139.008 E66.38182
G1 X210.828 Y139.596 E66.40448
G1 X210.418 Y140.139 E66.42711
G1 X210.101 Y140.483 E66.44267
G1 X209.984 Y140.6 E66.44817
G1 X209.475 Y141.053 E66.47083
G1 X208.917 Y141.442 E66.49346
G1 X208.317 Y141.764 E66.5161
G1 X207.683 Y142.013 E66.53876
G1 X207.024 Y142.186 E66.56142
G1 X206.35 Y142.28 E66.58405
G1 X205.882 Y142.299 E66.59963
G1 X201.799 Y142.298 E66.73543
G1 X201.397 Y142.274 E66.74883
G1 X201.35 Y142.281 E66.75041
G1 X200.883 Y142.3 E66.76595
G1 X111.117 Y142.3 E69.75158
G1 X110.587 Y142.269 E69.76924
G1 X110.2 Y142.3 E69.78215
G1 X106.118 Y142.3 E69.91792
G1 X105.438 Y142.26 E69.94058
G1 X104.768 Y142.141 E69.96321
G1 X104.116 Y141.944 E69.98586
G1 X103.492 Y141.672 E70.00851
G1 X102.904 Y141.328 E70.03116
G1 X102.36 Y140.918 E70.05382
G1 X102.017 Y140.601 E70.06935
G1 X101.9 Y140.484 E70.07486
G1 X101.447 Y139.975 E70.09752
G1 X101.058 Y139.417 E70.12014
G1 X100.736 Y138.817 E70.14279
G1 X100.487 Y138.183 E70.16545
G1 X100.314 Y137.524 E70.18811
G1 X100.22 Y136.85 E70.21074
G1 X100.201 Y136.383 E70.22629
G1 X100.2 Y76.618 E72.21408
G1 X100.24 Y75.938 E72.23674
G1 X100.359 Y75.268 E72.25937
G1 X100.556 Y74.616 E72.28202
G1 X100.828 Y73.992 E72.30466
G1 X101.172 Y73.404 E72.32732
G0 F6000 X101.57 Y73.53
G1 F1200 X102.182 Y72.8 E72.35901
G1 X102.299 Y72.683 E72.36451
G1 X102.791 Y72.247 E72.38637
G1 X103.332 Y71.875 E72.40821
G1 X103.914 Y71.571 E72.43005
G1 X104.529 Y71.34 E72.4519
G1 X105.168 Y71.185 E72.47377
G1 X106.118 Y71.101 E72.50549
G1 X110.201 Y71.102 E72.64129
G1 X110.73 Y71.134 E72.65892
G1 X111.117 Y71.1 E72.67184
G1 X200.883 Y71.1 E75.65747
G1 X201.321 Y71.127 E75.67206
G1 X201.8 Y71.1 E75.68802
G1 X205.882 Y71.1 E75.82379
G1 X206.538 Y71.14 E75.84565
G1 X207.184 Y71.259 E75.8675
G1 X207.811 Y71.456 E75.88935
G1 X208.409 Y71.728 E75.9112
G1 X208.97 Y72.07 E75.93306
G1 X209.7 Y72.682 E75.96474
